X:1
T:James Gibb editions
T:Beata es Virgo Maria - Terrabugio
T:#
%%score [ 1 2 3 ]
L:1/8
Q:1/4=76
M:4/4
K:C
V:1 treble nm="Alto" snm="A"
V:2 treble-8 nm="Tenor" snm="T"
V:3 bass nm="Bass" snm="B"
V:1
"^andante moderato""^Beata es Virgo Maria, op.81/3""^Giuseppe Terrabugio\n (1842-1933)" z2 | %1
w: |
 z4 z2!p! E2 | G2 D2 E4 | F6 E2- |"^," E2!<(! E2 E2!<)! D2 |!mf! E2 z2 z4 |[M:4/4] z4!p! E4 | %7
w: Be-|a- ta es|Vir- go|* Ma- ri\- *|a,|quae|
 E2 (DC)!<(! B,2 C2!<)! |!f! C4 B,2 B,B, | A,8 | B,4!mf! B,2 B,2 | C4 B,4 | (C4 D2) E2 | %13
w: o- mni\- * um por\-|ta- sti cre- a-|to-|rem, ge- nu-|i- sti|qui * te|
 D2 D2!f! ^C2 C2 | D2 D2!ff! F2 F2 | (E"^,"D D4 ^C2) | D4 z4 | z8 | z2 D2 F2 F2 | F6 E2 | %20
w: fe- cit, ge- nu-|i- sti qui te|fe\- * * *|cit,||et in ae-|ter- num,|
 z2 E2 E2 E2 | E2 D2 B,C D2 |"^dolce"!pp! (E6 D2 | C2 B,2 A,4) | !fermata!B,4 B,3 B, | C8 | %26
w: et in ae-|ter- num per- ma- nes|vir\- *||go. Al- le-|lu-|
 !fermata!B,8 |] %27
w: ia.|
V:2
 z2 | z2!p! c2 c4- | c2 B2 (!>!B2 A2) | (A2 d3"^," c) c2- |"^," c2!<(! c2 (c2!<)! B2) | %5
w: |Be- a\-|* ta es *|Vir\- * * go|* Ma- ri\- *|
!mf! c2 z2 z4 |[M:4/4][K:treble-8] z2!p! (c4 B2) | A3 A!<(! A2 G2!<)! |!f! ^F4 G2 GG | %9
w: a,|quae *|o- mni- um por\-|ta- sti cre- a-|
 (G2 E2 ^F4) | D4 z4 |!mf! E2 =F2 G4 | A4 G2 G2 | G2 G2!f! A2 G2 | F2 F2!ff! d2 d2 | (_B3 A G4) | %16
w: to\- * *|rem,|ge- nu- i-|sti qui te|fe- cit, ge- nu-|i- sti qui te|fe\- * *|
 ^F4 A4- |"^," A2 _B4 c2 | d4 d4- | d2 (c2 A)_B c2 | z2 G2 G2 G2 | G2 G2 GG G2 |!pp! (G3 A B4 | %23
w: cit, et|* in ae-|ter- num|* per\- * ma- nes,|et in ae-|ter- num per- ma- nes|vir\- * *|
 A2 G4 ^F2) | !fermata!G4 G3 G | E8 | !fermata!D8 |] %27
w: |go. Al- le-|lu-|ia.|
V:3
!pp! C2 | (C4 B,2) A,2 | (G,4 C,2) z2 | (F,4 G,2) A,2- | A,2!<(! (G,F,)!<)! (E,F, G,2) | %5
w: Be-|a\- * ta|es *|Vir\- * go|* Ma\- * ri\- * *|
!mf! C,2!p! (C4 B,2) |[M:4/4] (A,6 G,2 | F,3) E,!<(! D,2 E,2!<)! |!f! D,4 D,2 B,,C, | %9
w: a, quae *|o\- *|* mni- um por\-|ta- sti cre- a-|
 (D,2 C,2 D,4) |!p! G,,4 z4 | z4!mf! G,2 G,2 | F,2"^," E,2 B,,2 C,2 | B,,2 B,,2!f! A,,2 A,,2 | %14
w: to\- * *|rem,|ge- nu-|i- sti qui te|fe- cit, ge- nu-|
 _B,,2 B,,2!ff! _B,2 B,2 | (G,3 F, E,4) | D,4 ^F,4- |"^," F,2 G,4 A,2 | _B,4 B,4- | %19
w: i- sti qui te|fe\- * *|cit, et|* in ae-|ter- num|
 B,2 (A,2 F,)G, A,2 | z2 C,2 C,2 C,2 | C,2 B,,2 G,,A,, B,,2 |!pp! (C,4 D,4- | D,8) | %24
w: * per\- * ma- nes,|et in ae-|ter- num per- ma- nes|vir\- *||
 !fermata!G,,4 G,,3 G,, | C,8 | !fermata!G,,8 |] %27
w: go. Al- le-|lu-|ia.|

